source/img/icon-trust-chat.svg

<svg width="60" height="56" viewBox="0 0 60 56" fill="none" xmlns="http://www.w3.org/2000/svg">
<path d="M10.0667 23H23.9333C24.5232 23 25 22.552 25 22C25 21.448 24.5232 21 23.9333 21H10.0667C9.4768 21 9 21.448 9 22C9 22.552 9.4768 23 10.0667 23Z" fill="#868686"/>
<path d="M36 26H10C9.447 26 9 26.448 9 27C9 27.552 9.447 28 10 28H36C36.553 28 37 27.552 37 27C37 26.448 36.553 26 36 26Z" fill="#868686"/>
<path d="M36 33H10C9.447 33 9 33.448 9 34C9 34.552 9.447 35 10 35H36C36.553 35 37 34.552 37 34C37 33.448 36.553 33 36 33Z" fill="#868686"/>
<path d="M54.072 0.0711808L19.93 0C16.66 0 14 2.70487 14 6.03003V11.2405L5.93 11.2578C2.66 11.2578 0 13.9626 0 17.2878V38.7854C0 42.1106 2.66 44.8144 5.93 44.8144H12V54.9831C12 55.4031 12.254 55.7804 12.64 55.9319C12.757 55.9776 12.879 56 13 56C13.276 56 13.547 55.8831 13.74 55.6675L23.444 44.8124L40.07 44.7433C43.34 44.7433 46 42.0384 46 38.7142V38.5993L51.26 44.4829C51.453 44.6985 51.724 44.8155 52 44.8155C52.121 44.8155 52.243 44.7931 52.36 44.7473C52.746 44.5958 53 44.2186 53 43.7986V33.6299H54.07C57.34 33.6299 60 30.925 60 27.6009V6.10121C60 2.77707 57.341 0.0721977 54.072 0.0711808ZM44 38.7132C44 40.9168 42.237 42.7085 40.066 42.7085L22.996 42.7797C22.716 42.7807 22.448 42.9017 22.26 43.1122L14 52.3525V43.7966C14 43.2352 13.553 42.7797 13 42.7797H5.93C3.763 42.7797 2 40.9869 2 38.7844V17.2868C2 15.0832 3.763 13.2905 5.932 13.2905L15 13.2712C15.001 13.2712 15.001 13.2712 15.002 13.2712L40.07 13.2183C42.237 13.2183 44 15.011 44 17.2146V35.9667V38.7132ZM58 27.5988C58 29.8024 56.237 31.5941 54.07 31.5941H52C51.447 31.5941 51 32.0497 51 32.611V41.1669L46 35.5742V17.2156C46 13.8904 43.34 11.1856 40.068 11.1856L16 11.2354V6.02902C16 3.82546 17.763 2.03272 19.928 2.03272L54.069 2.1039C54.07 2.1039 54.07 2.1039 54.071 2.1039C56.238 2.1039 58.001 3.89664 58.001 6.1002V27.5988H58Z" fill="#868686"/>
</svg>

<svg viewBox="0 0 60 56" fill="none" xmlns="http://www.w3.org/2000/svg"><path d="M10.067 23h13.866c.59 0 1.067-.448 1.067-1s-.477-1-1.067-1H10.067C9.477 21 9 21.448 9 22s.477 1 1.067 1ZM36 26H10a1 1 0 1 0 0 2h26a1 1 0 1 0 0-2ZM36 33H10a1 1 0 1 0 0 2h26a1 1 0 1 0 0-2Z" fill="#868686"/><path d="M54.072.071 19.93 0C16.66 0 14 2.705 14 6.03v5.21l-8.07.018c-3.27 0-5.93 2.705-5.93 6.03v21.497c0 3.326 2.66 6.03 5.93 6.03H12v10.168c0 .42.254.797.64.949a.989.989 0 0 0 1.1-.265l9.704-10.855 16.626-.069c3.27 0 5.93-2.705 5.93-6.029V38.6l5.26 5.884a.994.994 0 0 0 1.1.264c.386-.151.64-.528.64-.948v-10.17h1.07c3.27 0 5.93-2.704 5.93-6.028V6.1c0-3.324-2.659-6.029-5.928-6.03ZM44 38.713c0 2.204-1.763 3.995-3.934 3.995l-17.07.072a.993.993 0 0 0-.736.332L14 52.352v-8.555c0-.562-.447-1.017-1-1.017H5.93C3.763 42.78 2 40.987 2 38.784V17.287c0-2.204 1.763-3.996 3.932-3.996L15 13.27h.002l25.068-.053c2.167 0 3.93 1.793 3.93 3.997V38.713ZM58 27.6c0 2.203-1.763 3.995-3.93 3.995H52c-.553 0-1 .456-1 1.017v8.556l-5-5.593V17.216c0-3.326-2.66-6.03-5.932-6.03L16 11.236V6.028c0-2.204 1.763-3.996 3.928-3.996l34.141.07h.002c2.167 0 3.93 1.794 3.93 3.997V27.6H58Z" fill="#868686"/></svg>
